X: 1
T: Revenge Of The Harmonica
R: reel
M: 4/4
L: 1/8
K: Ador
|:EAAB cBAc|~B2BA GABG|EAAB cBAc|BAGB A2AG|
EAAB cBAc|~B2BA GABd|edce dcBd|1 cAAG A2AG:|2 cAAG ABcd||
|:eAAB c2ce|~d2dB GABd|eAABc2ce|dBGB ABcd|
eAAB c2ce|~d2dB GABd|edce dcBd|1 cAAG ABcd:|2 cAAG A4||
|:aeeg ~e2de/f/|gfed edBd|aeeg ~e2de/f/|gfede2ee|
aeeg ~e2de/f/|gfed edBd|edce dcBd|cAAG A4:|

